bakery/img/twitter.svg

<svg width="31" height="31" viewBox="0 0 31 31" fill="none" xmlns="http://www.w3.org/2000/svg">
<path d="M15.5 31C24.0604 31 31 24.0604 31 15.5C31 6.93959 24.0604 0 15.5 0C6.93959 0 0 6.93959 0 15.5C0 24.0604 6.93959 31 15.5 31Z" fill="#E39A3B"/>
<path d="M24.9936 11.1395C24.3294 11.434 23.6149 11.6332 22.8655 11.7222C23.6306 11.2638 24.2178 10.5385 24.4949 9.67288C23.779 10.0976 22.9857 10.4056 22.1422 10.5717C21.4663 9.85192 20.5034 9.4021 19.4372 9.4021C17.3914 9.4021 15.7322 11.0613 15.7322 13.107C15.7322 13.3974 15.7651 13.6801 15.8287 13.9514C12.7496 13.797 10.0194 12.3221 8.19196 10.0799C7.8731 10.6269 7.69019 11.2638 7.69019 11.9427C7.69019 13.2278 8.34475 14.3623 9.33833 15.0265C8.7313 15.0074 8.15963 14.8408 7.66035 14.5626C7.66008 14.5783 7.66008 14.5941 7.66008 14.6096C7.66008 16.4047 8.9377 17.902 10.6323 18.2421C10.3217 18.3272 9.99372 18.3723 9.65636 18.3723C9.41708 18.3723 9.18526 18.3493 8.95925 18.3062C9.43062 19.7778 10.7986 20.849 12.4202 20.8791C11.152 21.873 9.55468 22.4651 7.8184 22.4651C7.51999 22.4651 7.22435 22.4477 6.93506 22.4132C8.57381 23.4648 10.5217 24.0779 12.6139 24.0779C19.4286 24.0779 23.1554 18.4325 23.1554 13.5361C23.1554 13.3756 23.1518 13.2156 23.1446 13.057C23.8691 12.5348 24.4971 11.8825 24.9936 11.1395Z" fill="#412D22"/>
</svg>

<svg width="31" height="31" fill="none" xmlns="http://www.w3.org/2000/svg"><path d="M15.5 31C24.06 31 31 24.06 31 15.5 31 6.94 24.06 0 15.5 0 6.94 0 0 6.94 0 15.5 0 24.06 6.94 31 15.5 31z" fill="#E39A3B"/><path d="M24.994 11.14a7.393 7.393 0 01-2.128.582 3.715 3.715 0 001.629-2.05 7.417 7.417 0 01-2.353.9 3.706 3.706 0 00-6.313 3.38 10.517 10.517 0 01-7.637-3.872 3.705 3.705 0 001.146 4.947 3.68 3.68 0 01-1.678-.464v.047a3.707 3.707 0 002.972 3.632 3.693 3.693 0 01-1.673.064 3.709 3.709 0 003.461 2.573 7.433 7.433 0 01-5.485 1.534 10.48 10.48 0 005.679 1.665c6.815 0 10.541-5.645 10.541-10.542 0-.16-.003-.32-.01-.479a7.512 7.512 0 001.849-1.918z" fill="#412D22"/></svg>
